lib/svgs/weibo.svg

<svg xmlns="http://www.w3.org/2000/svg" viewBox="0 0 20 20">
    <path fill="#000" fill-rule="evenodd" d="M13.8499436,9.84230848 L13.6000868,9.74549345 C13.3188779,9.58407999 13.5375426,9.32601671 13.5375426,9.32601671 C13.5375426,9.32601671 13.662631,9.10017004 13.7250152,8.74512651 C13.8187515,8.35786638 13.7875594,7.84157461 13.4126142,7.42209787 C13.2251417,7.1962512 12.9752849,7.06721956 12.694076,7.03500295 C12.4754114,7.00262113 12.2565867,7.00262113 12.0692741,7.00262113 C11.1944555,7.09943617 10.3196369,7.5189129 10.3196369,7.5189129 C9.47617028,7.84157461 9.69483495,7.38988127 9.81976334,6.71234125 C9.81976334,5.87322256 9.56990656,4.4535441 7.32039576,5.29249758 C5.07104492,6.13145105 3.13393508,9.06778822 3.13393508,9.06778822 C1.8217871,11.0361403 2.00925966,12.5205824 2.00925966,12.5205824 C2.32166061,15.8441797 5.57091844,16.7477316 8.10147812,16.9735782 C10.7257741,17.1994249 14.2874329,15.9732113 15.3495641,13.4563509 C16.4430474,10.9717071 14.4749054,9.97134012 13.8499436,9.84230848 M8.28895069,16.0378097 C5.63330265,16.1668414 3.50888021,14.7469977 3.50888021,12.8110275 C3.50888021,10.9071086 5.63330265,9.39044992 8.28895069,9.26141828 C10.9132466,9.10017004 13.006477,10.2940018 13.006477,12.1979207 C13.006477,14.1016743 10.9132466,15.9087781 8.28895069,16.0378097 M7.75788506,10.5198485 C5.10223703,10.8426754 5.41463798,13.5531659 5.41463798,13.5531659 C5.41463798,13.5531659 5.38344588,14.3921194 6.13317617,14.8115961 C7.66414878,15.7473646 9.25734565,15.1988563 10.0697801,14.0694577 C10.8507025,12.9078425 10.382181,10.1649702 7.75788506,10.5198485 M7.10173109,14.2953043 C6.60185758,14.3599028 6.19572034,14.0370759 6.19572034,13.5853825 C6.19572034,13.1336892 6.57066547,12.6818306 7.03918692,12.6173974 C7.60160461,12.552799 7.97654973,12.9078425 7.97654973,13.3595358 C7.97654973,13.8112292 7.5704125,14.2307059 7.10173109,14.2953043 M8.63254374,12.8432441 C8.47642325,12.9722757 8.28895069,12.9722757 8.1952144,12.8110275 C8.10147812,12.649614 8.13267023,12.3913855 8.28895069,12.2623539 C8.50761536,12.1011056 8.69508792,12.1333222 8.7888242,12.2947357 C8.88256048,12.4559839 8.82001631,12.7142124 8.63254374,12.8432441 M15.1308994,8.64831148 C15.3495641,8.64831148 15.5370367,8.48706323 15.5683887,8.26105135 L15.5683887,8.19661813 C15.8807897,5.03426908 13.1939496,5.58294267 13.1939496,5.58294267 C12.9439328,5.58294267 12.7566202,5.77640753 12.7566202,6.03463602 C12.7566202,6.2926993 12.9439328,6.51871118 13.1939496,6.51871118 C15.1308994,6.03463602 14.6935701,8.19661813 14.6935701,8.19661813 C14.6935701,8.45468141 14.8810427,8.64831148 15.1308994,8.64831148 M14.8184985,3.13051546 C13.8812956,2.87228697 12.9439328,3.06591703 12.6628839,3.13051546 C12.6315319,3.13051546 12.6315319,3.16273207 12.6003398,3.16273207 C12.3191309,3.2595471 12.1316583,3.51777559 12.1316583,3.8404373 C12.1316583,4.22753222 12.4128672,4.51797731 12.7566202,4.51797731 C12.7566202,4.51797731 13.1002133,4.48576071 13.3188779,4.38894567 C13.5063505,4.32434725 14.5372896,4.29213064 15.4746525,4.96983587 C15.5683887,5.03426908 15.662125,5.09886751 15.7558613,5.19568254 C16.0057181,5.42152922 16.2555749,5.71197431 16.4430474,6.06685263 C16.974273,7.35766466 16.6618721,8.19661813 16.63052,8.3902482 C16.63052,8.3902482 16.5055916,8.7129099 16.5055916,9.03557161 C16.5055916,9.42283174 16.7868004,9.64867841 17.1303935,9.64867841 C17.4116023,9.64867841 17.6616191,9.61646181 17.7240033,9.06778822 L17.7553554,9.06778822 C18.7551024,5.29249758 16.4743995,3.5499922 14.8184985,3.13051546"/>
</svg>

<svg xmlns="http://www.w3.org/2000/svg" viewBox="0 0 20 20">
    <path fill="#000" fill-rule="evenodd" d="M13.85 9.842l-.25-.097c-.281-.16-.062-.419-.062-.419s.125-.226.187-.58a1.45 1.45 0 0 0-.312-1.324 1.073 1.073 0 0 0-.719-.387c-.219-.032-.437-.032-.625-.032-.875.096-1.75.516-1.75.516-.843.323-.624-.13-.5-.807 0-.839-.25-2.258-2.499-1.42-2.249.84-4.186 3.776-4.186 3.776-1.312 1.968-1.125 3.453-1.125 3.453.313 3.323 3.562 4.227 6.092 4.453 2.625.225 6.186-1 7.249-3.518 1.093-2.484-.875-3.485-1.5-3.614zm-5.561 6.196c-2.656.129-4.78-1.291-4.78-3.227 0-1.904 2.124-3.42 4.78-3.55 2.624-.16 4.717 1.033 4.717 2.937s-2.093 3.71-4.717 3.84zm-.531-5.518c-2.656.323-2.343 3.033-2.343 3.033s-.032.84.718 1.259a2.873 2.873 0 0 0 3.937-.743c.78-1.161.312-3.904-2.312-3.55zm-.656 3.775c-.5.065-.906-.258-.906-.71 0-.451.375-.903.843-.968.563-.064.938.29.938.743 0 .451-.407.87-.875.935zm1.53-1.452c-.156.13-.343.13-.437-.032a.457.457 0 0 1 .094-.549c.219-.16.406-.129.5.033.094.161.031.42-.156.548zm6.499-4.195a.443.443 0 0 0 .437-.387v-.064c.313-3.163-2.374-2.614-2.374-2.614a.434.434 0 0 0-.437.452c0 .258.187.484.437.484 1.937-.484 1.5 1.678 1.5 1.678 0 .258.187.451.437.451zm-.313-5.517a4.615 4.615 0 0 0-2.155 0c-.031 0-.031.032-.063.032a.696.696 0 0 0-.468.677c0 .388.28.678.625.678 0 0 .343-.032.562-.13.187-.064 1.218-.096 2.156.582a3.202 3.202 0 0 1 .968 1.097c.531 1.29.219 2.13.188 2.323 0 0-.125.323-.125.646 0 .387.28.613.624.613.282 0 .532-.033.594-.581h.031c1-3.776-1.28-5.518-2.937-5.937z"/>
</svg>
